X:1
T:Rock-a-bye Baby
O:Traditional
M:3/4
L:1/4
K:Cmaj
E G E' | D'2 C' | E G C' | B3 |
w:Rock-a-bye ba-by on the tree top,
F G F' | E'2 D' | D' C' A | G3 |
w:When the wind blows, the cra-dle will rock,
E G E' | D'2 C' | E G C' | B2 A |
w:When the bough breaks the cra-dle will fall, and
F G F' | E'2 C' | D' A B | C'3 |]
w:down will come ba-by crad-dle and all!
